_includes/icons/color-trash.svg

<svg fill="#666" height="50" viewBox="0 0 48 48" width="50" xmlns="http://www.w3.org/2000/svg"><path d="m34 12-6-6h-8l-6 6h-3v28c0 2.199219 1.800781 4 4 4h18c2.199219 0 4-1.800781 4-4v-28z" fill="#9575cd"/><g fill="#7454b3"><path d="m24.5 39h-1c-.800781 0-1.5-.699219-1.5-1.5v-19c0-.800781.699219-1.5 1.5-1.5h1c.800781 0 1.5.699219 1.5 1.5v19c0 .800781-.699219 1.5-1.5 1.5z"/><path d="m31.5 39c-.800781 0-1.5-.699219-1.5-1.5v-19c0-.800781.699219-1.5 1.5-1.5s1.5.699219 1.5 1.5v19c0 .800781-.699219 1.5-1.5 1.5z"/><path d="m16.5 39c-.800781 0-1.5-.699219-1.5-1.5v-19c0-.800781.699219-1.5 1.5-1.5s1.5.699219 1.5 1.5v19c0 .800781-.699219 1.5-1.5 1.5z"/></g><path d="m11 8h26c1.101563 0 2 .898438 2 2v2h-30v-2c0-1.101562.898438-2 2-2z" fill="#b39ddb"/></svg>

<svg xmlns="http://www.w3.org/2000/svg" viewBox="0 0 48 48" width="50" height="50" fill="#666"><path d="M 34 12 L 28 6 L 20 6 L 14 12 L 11 12 L 11 40 C 11 42.199219 12.800781 44 15 44 L 33 44 C 35.199219 44 37 42.199219 37 40 L 37 12 Z" fill="#9575cd"/><path d="M 24.5 39 L 23.5 39 C 22.699219 39 22 38.300781 22 37.5 L 22 18.5 C 22 17.699219 22.699219 17 23.5 17 L 24.5 17 C 25.300781 17 26 17.699219 26 18.5 L 26 37.5 C 26 38.300781 25.300781 39 24.5 39 Z" fill="#7454b3"/><path d="M 31.5 39 C 30.699219 39 30 38.300781 30 37.5 L 30 18.5 C 30 17.699219 30.699219 17 31.5 17 C 32.300781 17 33 17.699219 33 18.5 L 33 37.5 C 33 38.300781 32.300781 39 31.5 39 Z" fill="#7454b3"/><path d="M 16.5 39 C 15.699219 39 15 38.300781 15 37.5 L 15 18.5 C 15 17.699219 15.699219 17 16.5 17 C 17.300781 17 18 17.699219 18 18.5 L 18 37.5 C 18 38.300781 17.300781 39 16.5 39 Z" fill="#7454b3"/><path d="M 11 8 L 37 8 C 38.101563 8 39 8.898438 39 10 L 39 12 L 9 12 L 9 10 C 9 8.898438 9.898438 8 11 8 Z" fill="#b39ddb"/></svg>
